build/img/icon-detective.svg

<svg height="31" viewBox="0 0 36 31" width="36" xmlns="http://www.w3.org/2000/svg"><path d="m18 9.75824c-.3881 0-.7031.31696-.7031.70806 0 .3908.315.7081.7031.7081s.7031-.3173.7031-.7081c0-.3911-.315-.70806-.7031-.70806z"/><path d="m33.8906 14.0066h-2.7358c-1.4423-4.14714-3.5349-11.41886-7.3257-13.476929-1.896-1.028069-3.6881-.310053-4.3622 1.148659-.2867.62011-.8594.9462-1.4669.9462-.6158 0-1.1838-.33329-1.4669-.94565-.6502-1.408923-2.3995-2.192767-4.229-1.298566-3.85149 1.883546-6.00536 9.447886-7.45885 13.626286h-2.73587c-1.16538 0-2.10938.9503-2.10938 2.1242 0 1.171.946198 2.1241 2.10938 2.1241h31.78122c1.1654 0 2.1094-.9506 2.1094-2.1241 0-1.1714-.9462-2.1242-2.1094-2.1242zm-26.57535-2.8323h7.87225c.3884 0 .7031-.3172.7031-.708 0-.3911-.3147-.70807-.7031-.70807h-7.38062c2.11954-5.89598 4.09952-7.60915 5.11142-8.10396 1.1038-.53934 2.0124-.08796 2.3398.62176.5158 1.11575 1.5828 1.76462 2.7419 1.76462 1.1618 0 2.2275-.65136 2.7419-1.76462.337-.72991 1.2503-1.134 2.42-.49979 1.0165.55207 2.9905 2.32221 5.0309 7.98199h-7.3803c-.3884 0-.7031.31697-.7031.70807s.3147.708.7031.708h7.8725c.3554 1.0323.7246 2.0974.98 2.8323h-23.32973c.2546-.733.62292-1.7956.97998-2.8323zm26.57535 5.6645h-31.78122c-.38782 0-.70313-.3178-.70313-.708 0-.3911.31476-.7081.70313-.7081h31.78122c.3878 0 .7032.3175.7032.7081 0 .3908-.3151.708-.7032.708z"/><path d="m16.5938 21.0873h-11.25005c-.38837 0-.70313.3169-.70313.708v2.8322c0 3.5138 2.83887 6.3726 6.32818 6.3726 2.6438 0 4.9839-1.6377 5.9147-4.1048.707-.3247 1.526-.3247 2.233 0 .9308 2.4671 3.2709 4.1045 5.9147 4.1045 3.4893 0 6.3282-2.8585 6.3282-6.3725v-2.8323c0-.3911-.3148-.708-.7032-.708h-11.25c-.3883 0-.7031.3169-.7031.708v.7081h-1.4062v-.7081c0-.3908-.3148-.7077-.7031-.7077zm-5.625 8.4967c-2.71395 0-4.92192-2.2235-4.92192-4.9565v-2.1241h9.84372v2.1241c0 2.7402-2.1961 4.9565-4.9218 4.9565zm9.1406-7.0806h9.8437v2.1241c0 2.733-2.208 4.9565-4.9219 4.9565-2.7325 0-4.9218-2.223-4.9218-4.9565zm-1.4063 1.4161v.708c0 .2263.0129.4517.0363.6755-.4886-.0899-.9902-.0899-1.4788 0 .0234-.2238.0363-.4492.0363-.6755v-.708z"/><path d="m10.9688 26.7516c-1.16323 0-2.10942-.9531-2.10942-2.1242 0-.3911-.31476-.708-.70313-.708s-.70313.3169-.70313.708c0 1.9519 1.57709 3.5403 3.51568 3.5403.3883 0 .7031-.3172.7031-.708 0-.3911-.3148-.7081-.7031-.7081z"/><path d="m25.0312 28.1677c1.9386 0 3.5157-1.5884 3.5157-3.5403 0-.3911-.3148-.708-.7031-.708-.3884 0-.7032.3169-.7032.708 0 1.1711-.9462 2.1242-2.1094 2.1242-.3883 0-.7031.317-.7031.7081 0 .3908.3148.708.7031.708z"/></svg>

<svg width="36" height="31" viewBox="0 0 36 31" xmlns="http://www.w3.org/2000/svg">
<path d="M18 9.75824C17.6119 9.75824 17.2969 10.0752 17.2969 10.4663C17.2969 10.8571 17.6119 11.1744 18 11.1744C18.3881 11.1744 18.7031 10.8571 18.7031 10.4663C18.7031 10.0752 18.3881 9.75824 18 9.75824Z" />
<path d="M33.8906 14.0066H31.1548C29.7125 9.85946 27.6199 2.58774 23.8291 0.529671C21.9331 -0.498398 20.141 0.219618 19.4669 1.67833C19.1802 2.29844 18.6075 2.62453 18 2.62453C17.3842 2.62453 16.8162 2.29124 16.5331 1.67888C15.8829 0.269957 14.1336 -0.513887 12.3041 0.380314C8.45261 2.26386 6.29874 9.8282 4.84525 14.0066H2.10938C0.944 14.0066 0 14.9569 0 16.1308C0 17.3018 0.946198 18.2549 2.10938 18.2549H33.8906C35.056 18.2549 36 17.3043 36 16.1308C36 14.9594 35.0538 14.0066 33.8906 14.0066ZM7.31525 11.1743H15.1875C15.5759 11.1743 15.8906 10.8571 15.8906 10.4663C15.8906 10.0752 15.5759 9.75823 15.1875 9.75823H7.80688C9.92642 3.86225 11.9064 2.14908 12.9183 1.65427C14.0221 1.11493 14.9307 1.56631 15.2581 2.27603C15.7739 3.39178 16.8409 4.04065 18 4.04065C19.1618 4.04065 20.2275 3.38929 20.7419 2.27603C21.0789 1.54612 21.9922 1.14203 23.1619 1.77624C24.1784 2.32831 26.1524 4.09845 28.1928 9.75823H20.8125C20.4241 9.75823 20.1094 10.0752 20.1094 10.4663C20.1094 10.8574 20.4241 11.1743 20.8125 11.1743H28.685C29.0404 12.2066 29.4096 13.2717 29.665 14.0066H6.33527C6.58987 13.2736 6.95819 12.211 7.31525 11.1743ZM33.8906 16.8388H2.10938C1.72156 16.8388 1.40625 16.521 1.40625 16.1308C1.40625 15.7397 1.72101 15.4227 2.10938 15.4227H33.8906C34.2784 15.4227 34.5938 15.7402 34.5938 16.1308C34.5938 16.5216 34.2787 16.8388 33.8906 16.8388Z" />
<path d="M16.5938 21.0873H5.34375C4.95538 21.0873 4.64062 21.4042 4.64062 21.7953V24.6275C4.64062 28.1413 7.47949 31.0001 10.9688 31.0001C13.6126 31.0001 15.9527 29.3624 16.8835 26.8953C17.5905 26.5706 18.4095 26.5706 19.1165 26.8953C20.0473 29.3624 22.3874 30.9998 25.0312 30.9998C28.5205 30.9998 31.3594 28.1413 31.3594 24.6273V21.795C31.3594 21.4039 31.0446 21.087 30.6562 21.087H19.4062C19.0179 21.087 18.7031 21.4039 18.7031 21.795V22.5031H17.2969V21.795C17.2969 21.4042 16.9821 21.0873 16.5938 21.0873ZM10.9688 29.584C8.25485 29.584 6.04688 27.3605 6.04688 24.6275V22.5034H15.8906V24.6275C15.8906 27.3677 13.6945 29.584 10.9688 29.584ZM20.1094 22.5034H29.9531V24.6275C29.9531 27.3605 27.7451 29.584 25.0312 29.584C22.2987 29.584 20.1094 27.361 20.1094 24.6275V22.5034ZM18.7031 23.9195V24.6275C18.7031 24.8538 18.716 25.0792 18.7394 25.303C18.2508 25.2131 17.7492 25.2131 17.2606 25.303C17.284 25.0792 17.2969 24.8538 17.2969 24.6275V23.9195H18.7031Z" />
<path d="M10.9688 26.7516C9.80557 26.7516 8.85938 25.7985 8.85938 24.6274C8.85938 24.2363 8.54462 23.9194 8.15625 23.9194C7.76788 23.9194 7.45312 24.2363 7.45312 24.6274C7.45312 26.5793 9.03021 28.1677 10.9688 28.1677C11.3571 28.1677 11.6719 27.8505 11.6719 27.4597C11.6719 27.0686 11.3571 26.7516 10.9688 26.7516Z" />
<path d="M25.0312 28.1677C26.9698 28.1677 28.5469 26.5793 28.5469 24.6274C28.5469 24.2363 28.2321 23.9194 27.8438 23.9194C27.4554 23.9194 27.1406 24.2363 27.1406 24.6274C27.1406 25.7985 26.1944 26.7516 25.0312 26.7516C24.6429 26.7516 24.3281 27.0686 24.3281 27.4597C24.3281 27.8505 24.6429 28.1677 25.0312 28.1677Z" />
</svg>
